X:687
T:Snowflake Breakdown
M:2/2
S:Colin Hume's website,  colinhume.com  - chords can also be printed below the stave.
Q:1/2=112
K:D
P:A
|: (3ABc | "D"d2fa fedf | "G"edBc "D"dBAF | "A"A,2C2 E2A2 | "A"cBAc B2 (3ABc |
"D"d2fa fedf | "G"edBc "D"dBAF | "A"Acef ge cA | "D"dcde d2 :|
P:B
|: (3ABc | "D"d2fd edfd | "D"a^g=gf edcB | "Bb"_B2d2 =f2d2 | "Bb"_bg=fb g2 f2 |
"D"d2fd edfd | "D"a^g=gf edcB | "A"Acef ge cA | "D"dcde d2 :|

